icons/linear-ele-other-guide.svg

<svg xmlns="http://www.w3.org/2000/svg" width="32px" height="32px" viewBox="0 0 32 32" version="1.1">
    <title>linear-ele-other-guide</title>
    <g id="linear-ele-other-guide" stroke-width="1" fill-rule="evenodd">
        <path d="M19,2 C19.5522847,2 20,2.44771525 20,3 L20,6 L26,6 C26.5522847,6 27,6.44771525 27,7 L27,14 C27,14.5522847 26.5522847,15 26,15 L20,15 L20,17 L25,17 C25.2919249,17 25.5692744,17.1275627 25.7592566,17.3492086 L28.7592566,20.8492086 C29.0802478,21.2236984 29.0802478,21.7763016 28.7592566,22.1507914 L25.7592566,25.6507914 C25.5692744,25.8724373 25.2919249,26 25,26 L20,26 L20,29 C20,29.5522847 19.5522847,30 19,30 L13,30 C12.4477153,30 12,29.5522847 12,29 L12,26 L6,26 C5.44771525,26 5,25.5522847 5,25 L5,18 C5,17.4477153 5.44771525,17 6,17 L12,17 L12,15 L7,15 C6.70807511,15 6.4307256,14.8724373 6.2407434,14.6507914 L3.2407434,11.1507914 C2.9197522,10.7763016 2.9197522,10.2236984 3.2407434,9.84920863 L6.2407434,6.34920863 C6.4307256,6.12756273 6.70807511,6 7,6 L12,6 L12,3 C12,2.44771525 12.4477153,2 13,2 L19,2 Z M18,26 L14,26 L14,28 L18,28 L18,26 Z M24.54,19 L7,19 L7,24 L24.539,24 L26.682,21.5 L24.54,19 Z M18,15 L14,15 L14,17 L18,17 L18,15 Z M25,8 L7.459,8 L5.317,10.5 L7.46,13 L25,13 L25,8 Z M18,4 L14,4 L14,6 L18,6 L18,4 Z" id="&#24418;&#29366;" fill-rule="nonzero" />
    </g>
</svg>

<svg xmlns="http://www.w3.org/2000/svg" viewBox="0 0 32 32"><path fill="currentColor" d="M19 2a1 1 0 0 1 1 1v3h6a1 1 0 0 1 1 1v7a1 1 0 0 1-1 1h-6v2h5a1 1 0 0 1 .76.35l3 3.5a1 1 0 0 1 0 1.3l-3 3.5A1 1 0 0 1 25 26h-5v3a1 1 0 0 1-1 1h-6a1 1 0 0 1-1-1v-3H6a1 1 0 0 1-1-1v-7a1 1 0 0 1 1-1h6v-2H7a1 1 0 0 1-.76-.35l-3-3.5a1 1 0 0 1 0-1.3l3-3.5A1 1 0 0 1 7 6h5V3a1 1 0 0 1 1-1zm-1 24h-4v2h4zm6.54-7H7v5h17.539l2.143-2.5zM18 15h-4v2h4zm7-7H7.459l-2.142 2.5L7.46 13H25zm-7-4h-4v2h4z"/></svg>
